Newaita-dark/actions/16/format-text-smaller.svg

<svg height="16" viewBox="0 0 16 16" width="16" xmlns="http://www.w3.org/2000/svg"><path d="m7.9375 4.824219c-.882812 0-1.660156.320312-2.140625.816406l1.246094.679687c.234375-.109374.550781-.175781.894531-.175781.734375 0 1.324219.296875 1.324219.664063v.925781c-.390625-.167969-.839844-.265625-1.324219-.265625-1.464844 0-2.644531.886719-2.644531 1.984375v.332031h.035156c.210937.941406 1.292969 1.652344 2.609375 1.652344.484375 0 .933594-.097656 1.324219-.265625v.265625h1.324219v-4.628906c0-1.101563-1.183594-1.984375-2.648438-1.984375zm0 3.96875c.734375 0 1.324219.292969 1.324219.660156s-.589844.660156-1.324219.660156c-.730469 0-1.324219-.292969-1.324219-.660156s.59375-.660156 1.324219-.660156zm0 0" fill="#e0e0e0"/></svg>

<svg xmlns="http://www.w3.org/2000/svg" xmlns:xlink="http://www.w3.org/1999/xlink" width="16px" height="16px" viewBox="0 0 16 16" version="1.1">
<g id="surface1">
     <defs>
  <style id="current-color-scheme" type="text/css">
   .ColorScheme-Text { color:#eeeeee; } .ColorScheme-Highlight { color:#424242; }
  </style>
 </defs>
<path style="fill:currentColor" class="ColorScheme-Text" d="M 7.9375 4.824219 C 7.054688 4.824219 6.277344 5.144531 5.796875 5.640625 L 7.042969 6.320312 C 7.277344 6.210938 7.59375 6.144531 7.9375 6.144531 C 8.671875 6.144531 9.261719 6.441406 9.261719 6.808594 L 9.261719 7.734375 C 8.871094 7.566406 8.421875 7.46875 7.9375 7.46875 C 6.472656 7.46875 5.292969 8.355469 5.292969 9.453125 L 5.292969 9.785156 L 5.328125 9.785156 C 5.539062 10.726562 6.621094 11.4375 7.9375 11.4375 C 8.421875 11.4375 8.871094 11.339844 9.261719 11.171875 L 9.261719 11.4375 L 10.585938 11.4375 L 10.585938 6.808594 C 10.585938 5.707031 9.402344 4.824219 7.9375 4.824219 Z M 7.9375 8.792969 C 8.671875 8.792969 9.261719 9.085938 9.261719 9.453125 C 9.261719 9.820312 8.671875 10.113281 7.9375 10.113281 C 7.207031 10.113281 6.613281 9.820312 6.613281 9.453125 C 6.613281 9.085938 7.207031 8.792969 7.9375 8.792969 Z M 7.9375 8.792969 "/>
</g>
</svg>
